src/lib/packages/icons/src/assets/line/pen-line.svg

<svg width="24" height="24" viewBox="0 0 24 24" fill="none" xmlns="http://www.w3.org/2000/svg">
<path d="M21.75 7.23096C21.751 6.49496 21.4651 5.80296 20.9441 5.28296L18.7161 3.05506C18.1951 2.53506 17.5051 2.24803 16.7681 2.24903C16.0321 2.25003 15.341 2.53796 14.823 3.05896L2.46899 15.47C2.32799 15.611 2.25 15.801 2.25 15.999V20.999C2.25 21.413 2.586 21.749 3 21.749H8C8.198 21.749 8.38905 21.67 8.52905 21.531L20.9399 9.17603C21.4619 8.65803 21.749 7.96696 21.75 7.23096ZM7.68994 20.25H3.75V16.3101L12.7429 7.276L16.7251 11.257L7.68994 20.25ZM19.8821 8.11402L17.7881 10.199L13.801 6.21302L15.886 4.11804C16.122 3.88104 16.436 3.751 16.771 3.75H16.772C17.106 3.75 17.42 3.87997 17.657 4.11597L19.885 6.344C20.121 6.581 20.251 6.89498 20.251 7.22998C20.25 7.56398 20.1191 7.87802 19.8821 8.11402ZM21.75 21C21.75 21.414 21.414 21.75 21 21.75H14C13.586 21.75 13.25 21.414 13.25 21C13.25 20.586 13.586 20.25 14 20.25H21C21.414 20.25 21.75 20.586 21.75 21Z" fill="currentColor"/>
</svg>

<svg xmlns="http://www.w3.org/2000/svg" width="24" height="24" fill="none"><path fill="currentColor" d="M21.75 7.231a2.728 2.728 0 0 0-.806-1.948l-2.228-2.228a2.732 2.732 0 0 0-1.948-.806 2.73 2.73 0 0 0-1.945.81L2.469 15.47a.747.747 0 0 0-.219.529v5c0 .414.336.75.75.75h5a.753.753 0 0 0 .529-.218L20.94 9.176c.523-.518.81-1.209.811-1.945ZM7.69 20.25H3.75v-3.94l8.993-9.034 3.982 3.981L7.69 20.25ZM19.882 8.114l-2.094 2.085-3.987-3.986 2.085-2.095c.236-.237.55-.367.885-.368h.001c.334 0 .648.13.885.366l2.228 2.228a1.247 1.247 0 0 1-.003 1.77ZM21.75 21a.75.75 0 0 1-.75.75h-7a.75.75 0 0 1 0-1.5h7a.75.75 0 0 1 .75.75Z"/></svg>
